Sardi Mono Papirus Dark/16x16/actions/insert-button.svg

<?xml version="1.0" encoding="UTF-8" standalone="no"?>
<svg xmlns="http://www.w3.org/2000/svg" width="16" height="16" viewBox="0 0 16 16">
 <defs>
  <style type="text/css" id="current-color-scheme">
   .ColorScheme-Text { color:#d3dae3; }
  </style>
 </defs>
 <path style="fill:currentColor;opacity:1" class="ColorScheme-Text" d="M 2.2734375 4.0058594 C 1.5683551 4.0058594 1 4.5152533 1 5.1484375 L 1 10.861328 C 1 11.494312 1.5683551 12.003906 2.2734375 12.003906 L 13.726562 12.003906 C 14.431545 12.003906 15 11.494312 15 10.861328 L 15 5.1484375 C 15 4.5152533 14.431545 4.0058594 13.726562 4.0058594 L 2.2734375 4.0058594 z M 10 6.0039062 L 11 6.0039062 L 11 9.0039062 L 6 9.0039062 L 6 10.003906 L 4 8.5039062 L 6 7.0039062 L 6 8.0039062 L 10 8.0039062 L 10 6.0039062 z"/>
</svg>

<?xml version="1.0" encoding="UTF-8" standalone="no"?>
<!-- Created with Inkscape (http://www.inkscape.org/) -->
<svg id="svg3049" xmlns:rdf="http://www.w3.org/1999/02/22-rdf-syntax-ns#" xmlns="http://www.w3.org/2000/svg" height="16" width="16" version="1.1" xmlns:cc="http://creativecommons.org/ns#" xmlns:dc="http://purl.org/dc/elements/1.1/">
 <defs id="defs3051">
  <style id="current-color-scheme" type="text/css">.ColorScheme-Text {
        color:#4d4d4d;
      }
      .ColorScheme-Background {
        color:#eff0f1;
      }
      .ColorScheme-Highlight {
        color:#3daee9;
      }
      .ColorScheme-ViewText {
        color:#31363b;
      }
      .ColorScheme-ViewBackground {
        color:#fcfcfc;
      }
      .ColorScheme-ViewHover {
        color:#93cee9;
      }
      .ColorScheme-ViewFocus{
        color:#3daee9;
      }
      .ColorScheme-ButtonText {
        color:#31363b;
      }
      .ColorScheme-ButtonBackground {
        color:#eff0f1;
      }
      .ColorScheme-ButtonHover {
        color:#93cee9;
      }
      .ColorScheme-ButtonFocus{
        color:#3daee9;
      }</style>
 </defs>
 <metadata id="metadata3054">
  <rdf:RDF>
   <cc:Work rdf:about="">
    <dc:format>image/svg+xml</dc:format>
    <dc:type rdf:resource="http://purl.org/dc/dcmitype/StillImage"/>
    <dc:title/>
   </cc:Work>
  </rdf:RDF>
 </metadata>
 <g id="layer1" transform="translate(-421.71 -531.79)">
  <g id="layer1-0" transform="matrix(.75 0 0 0.75 421.46 -241.23)">
   <text id="text3781" style="word-spacing:0px;letter-spacing:0px" xml:space="preserve" transform="scale(1)" font-size="12px" y="1040.7039" x="5.9146366" font-family="Sans" line-height="125%" fill="#ffffff"><tspan id="tspan3783" y="1040.7039" x="5.9146366"/></text>
   <path id="path3346" opacity=".72" style="color:#4d4d4d" d="m2.2734 4c-0.7051 0-1.2734 0.5094-1.2734 1.1426v5.7144c0 0.633 0.5683 1.143 1.2734 1.143h11.454c0.705 0 1.273-0.51 1.273-1.143v-5.7144c0-0.6332-0.568-1.1426-1.273-1.1426h-11.454zm7.7266 2h1v3h-5v1l-2-1.5 2-1.5v1h4v-2z" transform="matrix(1.3333 0 0 1.3333 .33333 1030.7)" fill="#fff"/>
  </g>
 </g>
</svg>
